X:3
T:Ship Hornpipe,The. WM.003
M:4/4
L:1/8
Q:1/2=90
S:Wm.Mittell’s MS, New Romney,Kent,1799
R:.Hornpipe
O:England
A:Kent
Z:vmp.Chris Partington
K:G
G2DGA2DA|BdGB AFED|G2BGE2cA|BADFG4:|!
|:gdec dBAG|gdec dBAG|cAGF dBAG|edcB AcBA|!
G2DGA2DA|BdGB AFED|G2BGE2cA|BGDFG4:|

